!!!!SEGMENT: pl-cz--iii-689--006_volckmer-augustin--stabat-mater-niech-gorzka-lsmiercc.krn
!!!cenid: 17xx:1225
!!!COM: Volckmer, Augustin
!!!COM-rismID: pe30020656
!!!CDT: 1755-~1820
!!!CNT:
!!!OPR: Stabat Mater
!!!OTL: Niech gorzką śmierć
!!!OMV: 006
!!!PDT:
!!!AGN: Sacred
!!!SMS-siglum: PL-CZ
!!!SMS-shelfmark: III-689
!!!SMS-shelfwork: 001-006 M
!!!SMS-variant:
!!!SMS-altvar:
!!!NIFC-rismSourceID: 300001407
!!!NIFC-rismChildID: 300001407
!!!NIFC-islandoraID: pl-cz:40317
!!!URL-pdf-islandora: https://repozytorium.nifc.pl/islandora/object/pl-cz%3A40317/datastream/PDF/view
!!!URL-scan: https://polish.musicsources.pl/pl/lokalizacje/galeria/rekopisy/6986/1 @EN{Scan on Polish Music Sources Website} @PL{Skany w portalu Dziedzictwo Muzyki Polskiej w otwartym dostępie}
!!!IIIF:
!!!ONB-nifc: UWAGA: części Stabat Mater: Stała Matka Boleściwa, O jak smutna i strapiona, Widziała Kochanka swego, Święta matko, Pragnę stać pod krzyżem, Niech gorzką śmierć, Daj niech rany, Ze wszech Panien, Kiedy ciało
!!!AIN: 1 alto 1 bass 2 cor 1 fagot 2 flt 2 oboe 1 organ 1 soprn 1 tenor 1 viola 2 violn
!!!key: c
**kern	**kern	**dynam	**kern	**dynam	**kern	**dynam	**kern	**text	**kern	**kern	**kern	**kern	**kern	**kern	**kern	**dynam	**kern	**kern	**kern
*	*group4	*	*group4	*	*group4	*	*group3	*	*group3	*group3	*group3	*group2	*group2	*group1	*group1	*	*group1	*group1	*group1
*part15	*part14	*part14	*part13	*part13	*part12	*part12	*part11	*part11	*part10	*part9	*part8	*part7	*part6	*part5	*part4	*	*part3	*part2	*part1
*staff15	*staff14	*	*staff13	*	*staff12	*	*staff11	*staff11	*staff10	*staff9	*staff8	*staff7	*staff6	*staff5	*staff4	*	*staff3	*staff2	*staff1
*I"Fundamento !	*I"Alto Viola Oblg per expreſsivo.	*	*I"Violino Secundo.	*	*I"Violino Primo .	*	*I"Baſso.	*	*I"Tenore.	*I"Alto.	*I"Canto.	*I"Cors de Caſse Secondo in Dis.	*I"Cors de Caſse Primo in Dis.	*I"Fagotto	*I"Haubois Secunda.	*	*I"Haubois Primo	*I"Flauto Secondo.	*I"Flauto Primo.
*I'fund	*I'a-vla	*	*I'vl 2	*	*I'vl 1	*	*I'B	*	*I'T	*I'A	*I'S	*I'cor 2	*I'cor 1	*I'fg	*I'ob 2	*	*I'ob 1	*I'fl 2	*I'fl 1
*Iorgan	*Iviola	*	*Ivioln	*	*Ivioln	*	*Ibass	*	*Itenor	*Ialto	*Isoprn	*Icor	*Icor	*Ifagot	*Ioboe	*	*Ioboe	*Iflt	*Iflt
*ICklav	*ICstr	*	*ICstr	*	*ICstr	*	*ICvox	*	*ICvox	*ICvox	*ICvox	*ICbras	*ICbras	*ICww	*ICww	*	*ICww	*ICww	*ICww
*IGcont	*	*	*	*	*	*	*IGcoro	*	*IGcoro	*IGcoro	*IGcoro	*	*	*	*	*	*	*	*
*clefF4	*clefC3	*	*clefG2	*	*clefG2	*	*clefF4	*	*clefC4	*clefC3	*clefC1	*clefG2	*clefG2	*clefF4	*clefG2	*	*clefG2	*clefG2	*clefG2
*	*	*	*	*	*	*	*	*	*	*	*	*ITrd-2c-3	*ITrd-2c-3	*	*	*	*	*	*
*k[b-e-a-]	*k[b-e-a-]	*	*k[b-e-a-]	*	*k[b-e-a-]	*	*k[b-e-a-]	*	*k[b-e-a-]	*k[b-e-a-]	*k[b-e-a-]	*k[b-e-a-]	*k[b-e-a-]	*k[b-e-a-]	*k[b-e-a-]	*	*k[b-e-a-]	*k[b-e-a-]	*k[b-e-a-]
*c:	*c:	*	*c:	*	*c:	*	*c:	*	*c:	*c:	*c:	*c:	*c:	*c:	*c:	*	*c:	*c:	*c:
*M4/4	*M4/4	*	*M4/4	*	*M4/4	*	*M4/4	*	*M4/4	*M4/4	*M4/4	*M4/4	*M4/4	*M4/4	*M4/4	*	*M4/4	*M4/4	*M4/4
*met(c)	*met(c)	*	*met(c)	*	*met(c)	*	*met(c)	*	*met(c)	*met(c)	*met(c)	*met(c)	*met(c)	*met(c)	*met(c)	*	*met(c)	*met(c)	*met(c)
=1	=1	=1	=1	=1	=1	=1	=1	=1	=1	=1	=1	=1	=1	=1	=1	=1	=1	=1	=1
!	!	!	!	!	!	!	!LO:TX:a:t=1.	!	!	!	!	!	!	!	!	!	!	!	!
!LO:TX:b:i:t=Niech gorzką Smierć	!	!	!	!	!	!	!LO:TX:t=P:problem:poniżej partii B pięciolinia z pomocniczo zapisaną partią vl 1	!	!	!	!	!	!	!	!LO:TX:a:t=7.	!	!LO:TX:a:t=7.	!	!
!LO:TX:a:t=Recitativo	!LO:TX:a:t=Recitativo	!	!LO:TX:a:t=Retitativo	!	!	!	!LO:TX:a:t=Recitativo	!	!LO:TX:a:t=Recitativo Tacet.	!LO:TX:a:t=Recitativo Et Aria IVta Tacet	!LO:TX:a:t=Tacet	!LO:TX:a:t=Recitativo Tacet	!LO:TX:a:t=Recitativo Tacet in Dis	!LO:TX:a:t=Recitativo	!LO:TX:a:t=Recitativo	!	!LO:TX:a:t=Recitativo	!LO:TX:a:t=Recitativo Aria et Adagio Tacent.	!LO:TX:a:t=Recitativo et Aria IV Tacet
!LO:TX:t=No6.	!LO:TX:t=No6.	!LO:DY:rj:t=p&colon;	!LO:TX:t=No6.	!LO:DY:rj	!LO:TX:t=No6.	!LO:DY:a:rj	!LO:TX:t=No6.	!	!	!	!	!LO:TX:t=No6.	!LO:TX:t=No6.	!LO:TX:t=No6.	!LO:TX:t=No6.	!	!LO:TX:t=No6.	!LO:TX:t=No6.	!LO:TX:t=No6.
4C/	4g\	p	8r	p	8r	p	1r	.	1ryy	1ryy	1ryy	1ryy	1ryy	4C/	00r	.	00r	1ryy	1ryy
.	.	.	8g/L	.	(8ee-\L	.	.	.	.	.	.	.	.	.	.	.	.	.	.
4r	4r	.	8f/	.	8dd\	.	.	.	.	.	.	.	.	4r	.	.	.	.	.
.	.	.	8e-/J	.	8cc\J)	.	.	.	.	.	.	.	.	.	.	.	.	.	.
4G\	4g\	.	8r	.	8r	.	.	.	.	.	.	.	.	4G\	.	.	.	.	.
.	.	.	8f/L	.	(8dd\L	.	.	.	.	.	.	.	.	.	.	.	.	.	.
4r	4r	.	8e-/	.	8cc\	.	.	.	.	.	.	.	.	4r	.	.	.	.	.
.	.	.	8d/J	.	8bn\J)	.	.	.	.	.	.	.	.	.	.	.	.	.	.
=2	=2	=2	=2	=2	=2	=2	=2	=2	=2	=2	=2	=2	=2	=2	=2	=2	=2	=2	=2
!	!	!	!	!	!	!	!LO:TX:a:t=2.	!	!	!	!	!	!	!	!	!	!	!	!
8C/	8g\	.	16r	.	16r	.	1r	.	1ryy	1ryy	1ryy	1ryy	1ryy	8C/	.	.	.	1ryy	1ryy
.	.	.	16g'/LL	.	(16ee-\LL	.	.	.	.	.	.	.	.	.	.	.	.	.	.
8r	8r	.	(16d/	.	16bn\	.	.	.	.	.	.	.	.	8r	.	.	.	.	.
.	.	.	16e-/JJ)	.	16cc\JJ)	.	.	.	.	.	.	.	.	.	.	.	.	.	.
8C/	8g\	.	16r	.	16r	.	.	.	.	.	.	.	.	8c\	.	.	.	.	.
.	.	.	16g'/LL	.	(16ee-\LL	.	.	.	.	.	.	.	.	.	.	.	.	.	.
8r	8r	.	(16d/	.	16b\	.	.	.	.	.	.	.	.	8r	.	.	.	.	.
.	.	.	16e-/JJ)	.	16cc\JJ)	.	.	.	.	.	.	.	.	.	.	.	.	.	.
8C/	8g\	.	16r	.	16r	.	.	.	.	.	.	.	.	8C/	.	.	.	.	.
.	.	.	16g'/LL	.	(16ee-\LL	.	.	.	.	.	.	.	.	.	.	.	.	.	.
8r	8r	.	(16d/	.	16b\	.	.	.	.	.	.	.	.	8r	.	.	.	.	.
.	.	.	16e-/JJ)	.	16cc\JJ)	.	.	.	.	.	.	.	.	.	.	.	.	.	.
4C/	4g\	.	4e-/	.	4cc\	.	.	.	.	.	.	.	.	8CC/	.	.	.	.	.
.	.	.	.	.	.	.	.	.	.	.	.	.	.	8r	.	.	.	.	.
=3	=3	=3	=3	=3	=3	=3	=3	=3	=3	=3	=3	=3	=3	=3	=3	=3	=3	=3	=3
*	*	*	*	*	*^	*	*	*	*	*	*	*	*	*	*	*	*	*	*
*	*	*	*	*	*	*cue	*	*	*	*	*	*	*	*	*	*	*	*	*	*
!LO:TX:a:t=1	!	!	!LO:TX:a:t=1.	!	!	!	!	!	!	!	!	!	!	!	!LO:TX:a:t=1	!	!	!	!	!
1r	1r	.	1r	.	1r	4g\	.	4G\	Niech	1ryy	1ryy	1ryy	1ryy	1ryy	1r	.	.	.	1ryy	1ryy
.	.	.	.	.	.	16r	.	16r	.	.	.	.	.	.	.	.	.	.	.	.
.	.	.	.	.	.	16g\	.	16G\	gorz-	.	.	.	.	.	.	.	.	.	.	.
.	.	.	.	.	.	16g\	.	16G\	-ką	.	.	.	.	.	.	.	.	.	.	.
.	.	.	.	.	.	16g\	.	16G\	Smierć	.	.	.	.	.	.	.	.	.	.	.
.	.	.	.	.	.	8cc\	.	8c\	Pań-	.	.	.	.	.	.	.	.	.	.	.
.	.	.	.	.	.	8g\	.	8G\	-ską	.	.	.	.	.	.	.	.	.	.	.
.	.	.	.	.	.	8e-/	.	8E-\	no-	.	.	.	.	.	.	.	.	.	.	.
.	.	.	.	.	.	8c/	.	8C/	-sze	.	.	.	.	.	.	.	.	.	.	.
*	*	*	*	*	*	*Xcue	*	*	*	*	*	*	*	*	*	*	*	*	*	*
*	*	*	*	*	*v	*v	*	*	*	*	*	*	*	*	*	*	*	*	*	*
!	!	!	!	!	!	!	!LO:LB:g=original	!	!	!	!	!	!	!	!	!	!	!	!
=4	=4	=4	=4	=4	=4	=4	=4	=4	=4	=4	=4	=4	=4	=4	=4	=4	=4	=4	=4
!	!	!	!	!	!	!	!LO:TX:a:t=1.	!	!	!	!	!	!	!	!	!	!	!	!
4r	4r	.	4r	.	4r	.	1r	.	1ryy	1ryy	1ryy	1ryy	1ryy	4r	.	.	.	1ryy	1ryy
!	!	!	!	!	!	!LO:DY:a	!	!	!	!	!	!	!	!	!	!	!	!	!
8C/	8g\	.	16r	.	16r	p	.	.	.	.	.	.	.	8C/	.	.	.	.	.
.	.	.	16g'/LL	.	(16dd\LL	.	.	.	.	.	.	.	.	.	.	.	.	.	.
8r	8r	.	(16d/	.	16bn\	.	.	.	.	.	.	.	.	8r	.	.	.	.	.
.	.	.	16e-/JJ)	.	16cc\JJ)	.	.	.	.	.	.	.	.	.	.	.	.	.	.
8C/	8g\	.	16r	.	16r	.	.	.	.	.	.	.	.	8C/	.	.	.	.	.
.	.	.	16g'/LL	.	(16ee-\LL	.	.	.	.	.	.	.	.	.	.	.	.	.	.
8r	8r	.	(16d/	.	16b\	.	.	.	.	.	.	.	.	8r	.	.	.	.	.
.	.	.	16e-/JJ)	.	16cc\JJ)	.	.	.	.	.	.	.	.	.	.	.	.	.	.
8C/	8g\	.	16r	.	16r	.	.	.	.	.	.	.	.	8C/	.	.	.	.	.
.	.	.	16g/LL	.	(16ee-\LL	.	.	.	.	.	.	.	.	.	.	.	.	.	.
8r	8r	.	16d/	.	16b\	.	.	.	.	.	.	.	.	8r	.	.	.	.	.
.	.	.	16e-/JJ	.	16cc\JJ)	.	.	.	.	.	.	.	.	.	.	.	.	.	.
=5	=5	=5	=5	=5	=5	=5	=5	=5	=5	=5	=5	=5	=5	=5	=5	=5	=5	=5	=5
!	!	!	!	!	!LO:TX:t=P:problem:mixed beam	!LO:DY:a	!LO:TX:a:t=2.	!	!	!	!	!	!	!	!	!	!	!	!
2GG/	4g\	.	16d/LL	.	(>16bn/LL	f	1r	.	1ryy	1ryy	1ryy	1ryy	1ryy	2GG/	0r	.	0r	1ryy	1ryy
.	.	.	16G/	.	16G/)	.	.	.	.	.	.	.	.	.	.	.	.	.	.
.	.	.	16G/	.	(16G/	.	.	.	.	.	.	.	.	.	.	.	.	.	.
.	.	.	16An/JJ	.	16Bn/JJ)	.	.	.	.	.	.	.	.	.	.	.	.	.	.
!	!	!	!LO:LB:g=original	!	!LO:LB:g=original	!	!	!	!	!	!	!	!	!	!	!	!	!	!
.	8g\L	.	16B-/LL	.	(16B/LL	.	.	.	.	.	.	.	.	.	.	.	.	.	.
.	.	.	16d/	.	16d/	.	.	.	.	.	.	.	.	.	.	.	.	.	.
.	8g\J	.	16d/	.	(16d/)	.	.	.	.	.	.	.	.	.	.	.	.	.	.
.	.	.	16Bn/JJ	.	16g/JJ	.	.	.	.	.	.	.	.	.	.	.	.	.	.
4G\	4d\	.	4B/	.	4g'/)	.	.	.	.	.	.	.	.	4G\	.	.	.	.	.
8GG/L	8d\L	.	8B/L	.	8g'/L	.	.	.	.	.	.	.	.	8GG/L	.	.	.	.	.
8GG/J	8d\J	.	8B/J	.	8g'/J	.	.	.	.	.	.	.	.	8GG/J	.	.	.	.	.
=6	=6	=6	=6	=6	=6	=6	=6	=6	=6	=6	=6	=6	=6	=6	=6	=6	=6	=6	=6
!	!	!	!LO:SIC:s=4Bn	!	!	!	!	!	!	!	!	!	!	!	!	!	!	!	!
4GG/	4d\	.	4B-/	.	4g/	.	4r	.	1ryy	1ryy	1ryy	1ryy	1ryy	4GG/	.	.	.	1ryy	1ryy
4r	4r	.	4r	.	4r	.	16Bn\	Krzy-	.	.	.	.	.	4r	.	.	.	.	.
.	.	.	.	.	.	.	16B\	-ży	.	.	.	.	.	.	.	.	.	.	.
.	.	.	.	.	.	.	16d\	Ra-	.	.	.	.	.	.	.	.	.	.	.
.	.	.	.	.	.	.	16B\	.	.	.	.	.	.	.	.	.	.	.	.
8r	8r	.	8r	.	8r	.	4G\	-ny	.	.	.	.	.	8r	.	.	.	.	.
16r	16r	.	16r	.	16r	.	.	.	.	.	.	.	.	16r	.	.	.	.	.
!	!	!	!	!	!	!LO:DY:rj:t=fo	!	!	!	!	!	!	!	!LO:TX:t=P:problem:mixed beam	!	!	!	!	!
16G\KL	16g\KL|	.	16d/KL	.	16bn\KL	f	.	.	.	.	.	.	.	16G\KL	.	.	.	.	.
8G\J	8g\J|	.	8d/J	.	8b\J	.	8r	.	.	.	.	.	.	8GG/J	.	.	.	.	.
8r	8r	.	8r	.	8r	.	16G\LL	ie-	.	.	.	.	.	8r	.	.	.	.	.
.	.	.	.	.	.	.	16D\JJ	-go	.	.	.	.	.	.	.	.	.	.	.
!	!	!	!	!	!	!	!	!	!	!	!	!	!	!LO:LB:g=original	!	!	!	!	!
=7	=7	=7	=7	=7	=7	=7	=7	=7	=7	=7	=7	=7	=7	=7	=7	=7	=7	=7	=7
!	!	!	!	!	!	!	!LO:N:xstem	!	!	!	!	!	!	!	!	!	!	!	!
4r	4r	.	4r	.	4r	.	8GG/	pro-	1ryy	1ryy	1ryy	1ryy	1ryy	4r	1r	.	1r	1ryy	1ryy
.	.	.	.	.	.	.	8C/yy	-sze	.	.	.	.	.	.	.	.	.	.	.
4C/	4g\	.	8r	.	8r	.	4r	.	.	.	.	.	.	4C/	.	.	.	.	.
.	.	.	16r	.	16r	.	.	.	.	.	.	.	.	.	.	.	.	.	.
.	.	.	16g/	.	16ee-\	.	.	.	.	.	.	.	.	.	.	.	.	.	.
2r	2r	.	16d'/LL	.	(16bn\LL	.	2r	.	.	.	.	.	.	2r	.	.	.	.	.
.	.	.	(16f/	.	16dd\	.	.	.	.	.	.	.	.	.	.	.	.	.	.
.	.	.	16e-/	.	16cc\	.	.	.	.	.	.	.	.	.	.	.	.	.	.
.	.	.	16g/JJ)	.	16ee-\JJ)	.	.	.	.	.	.	.	.	.	.	.	.	.	.
.	.	.	(16d/LL	.	(16bn\LL	.	.	.	.	.	.	.	.	.	.	.	.	.	.
.	.	.	16f/	.	16dd\	.	.	.	.	.	.	.	.	.	.	.	.	.	.
.	.	.	16e-/	.	16cc\	.	.	.	.	.	.	.	.	.	.	.	.	.	.
.	.	.	16g/JJ)	.	16ee-\JJ)	.	.	.	.	.	.	.	.	.	.	.	.	.	.
!LO:LB:g=original	!	!	!	!	!	!	!	!	!	!	!	!	!	!	!	!	!	!	!
=8	=8	=8	=8	=8	=8	=8	=8	=8	=8	=8	=8	=8	=8	=8	=8	=8	=8	=8	=8
8r	8r	.	(16d/LL	.	(16b-\LL	.	2r	.	1ryy	1ryy	1ryy	1ryy	1ryy	8r	2r	.	2r	1ryy	1ryy
.	.	.	16f/	.	16dd\	.	.	.	.	.	.	.	.	.	.	.	.	.	.
8C'/	8g\L	.	16e-/	.	16cc\	.	.	.	.	.	.	.	.	8C/	.	.	.	.	.
.	.	.	16g/JJ)	.	16ee-\JJ)	.	.	.	.	.	.	.	.	.	.	.	.	.	.
4F#X\	8cc\	.	8a-X/L	.	(16ee-\LL	.	.	.	.	.	.	.	.	4F#X\	.	.	.	.	.
.	.	.	.	.	16dd\	.	.	.	.	.	.	.	.	.	.	.	.	.	.
.	8e-X\J	.	8an/J	.	16dd\	.	.	.	.	.	.	.	.	.	.	.	.	.	.
.	.	.	.	.	16cc\JJ)	.	.	.	.	.	.	.	.	.	.	.	.	.	.
!	!	!	!	!	!	!	!LO:LB:g=original	!	!	!	!	!	!	!	!	!LO:DY:t=p&colon;	!	!	!
8G'\	8d\	.	16r	.	16r	.	4G\	Niech	.	.	.	.	.	8G\	4bn\	p	4gg\	.	.
.	.	.	16g'/LL	.	16b-'\LL	.	.	.	.	.	.	.	.	.	.	.	.	.	.
8r	8r	.	16g'/	.	16b-'\	.	.	.	.	.	.	.	.	8r	.	.	.	.	.
.	.	.	16g'/JJ	.	16b-'\JJ	.	.	.	.	.	.	.	.	.	.	.	.	.	.
8F#X'\	4f#X\	.	16r	.	16r	.	4F#X\	mam	.	.	.	.	.	8F#X\	4cc\	.	4ff#X\	.	.
.	.	.	16an'/LL	.	16cc'\LL	.	.	.	.	.	.	.	.	.	.	.	.	.	.
8r	.	.	16a'/	.	16cc'\	.	.	.	.	.	.	.	.	8r	.	.	.	.	.
.	.	.	16a'/JJ	.	16cc'\JJ	.	.	.	.	.	.	.	.	.	.	.	.	.	.
!	!LO:LB:g=original	!	!	!	!	!	!	!	!	!	!	!	!	!	!	!	!	!	!
=9	=9	=9	=9	=9	=9	=9	=9	=9	=9	=9	=9	=9	=9	=9	=9	=9	=9	=9	=9
8Fn\	4fn\	.	16r	.	16r	.	4Fn\	w Ser-	1ryy	1ryy	1ryy	1ryy	1ryy	8Fn\	4dd\	.	4ffn\	1ryy	1ryy
.	.	.	16bn'\LL	.	16dd'\LL	.	.	.	.	.	.	.	.	.	.	.	.	.	.
8r	.	.	16b'\	.	16dd'\	.	.	.	.	.	.	.	.	8r	.	.	.	.	.
.	.	.	16b'\JJ	.	16dd'\JJ	.	.	.	.	.	.	.	.	.	.	.	.	.	.
8E-X\L	8e-X\L	.	16r	.	16r	.	8En\L	-cu	.	.	.	.	.	8E-X\L	8cc\L	.	8ee-X\L	.	.
.	.	.	16cc\	.	16ee-\	.	.	.	.	.	.	.	.	.	.	.	.	.	.
8BBn\J	8bn\J	.	16r	.	16r	.	8BBn\J	.	.	.	.	.	.	8BBn\J	8bn\J	.	8dd\J	.	.
.	.	.	16dd\	.	16ff\	.	.	.	.	.	.	.	.	.	.	.	.	.	.
*	*2\right	*	*	*	*	*	*	*	*	*	*	*	*	*	*2\right	*	*2\right	*	*
!	!	!	!	!	!LO:LB:g=original	!	!	!	!	!	!	!	!	!	!	!	!	!	!
4C/	2ccn\	.	16r	.	16r	.	4C/	wy-	.	.	.	.	.	4C/	2cc\	.	2ee-\	.	.
.	.	.	16cc'\LL	.	16ee-'\LL	.	.	.	.	.	.	.	.	.	.	.	.	.	.
.	.	.	16cc'\	.	16ee-'\	.	.	.	.	.	.	.	.	.	.	.	.	.	.
.	.	.	16cc'\JJ	.	16ee-'\JJ	.	.	.	.	.	.	.	.	.	.	.	.	.	.
4F#X\	.	.	16r	.	16r	.	4F#X\	-ry-	.	.	.	.	.	4F#X\	.	.	.	.	.
.	.	.	16cc'\LL	.	16ee-'\LL	.	.	.	.	.	.	.	.	.	.	.	.	.	.
.	.	.	16cc'\	.	16ee-'\	.	.	.	.	.	.	.	.	.	.	.	.	.	.
.	.	.	16cc'\JJ	.	16ee-'\JJ	.	.	.	.	.	.	.	.	.	.	.	.	.	.
!	!	!	!LO:LB:g=original	!	!	!	!	!	!	!	!	!	!	!	!	!	!	!	!
=10	=10	=10	=10	=10	=10	=10	=10	=10	=10	=10	=10	=10	=10	=10	=10	=10	=10	=10	=10
*2\right	*	*	*	*	*	*	*	*	*	*	*	*	*	*2\right	*	*	*	*	*
2G\	4d\	.	4bn\	.	16dd\LL	.	4G\	-te.	1ryy	1ryy	1ryy	1ryy	1ryy	2G\	4bn\	.	4dd\	1ryy	1ryy
.	.	.	.	.	(16gg\	.	.	.	.	.	.	.	.	.	.	.	.	.	.
.	.	.	.	.	16ff#X\)	.	.	.	.	.	.	.	.	.	.	.	.	.	.
.	.	.	.	.	16gg\JJ	.	.	.	.	.	.	.	.	.	.	.	.	.	.
.	8d\L	.	8b\L	.	(16dd\LL	.	4r	.	.	.	.	.	.	.	4r	.	4r	.	.
.	.	.	.	.	16gg\	.	.	.	.	.	.	.	.	.	.	.	.	.	.
.	8e-\J	.	8cc\J	.	16ee-\)	.	.	.	.	.	.	.	.	.	.	.	.	.	.
.	.	.	.	.	16gg\JJ	.	.	.	.	.	.	.	.	.	.	.	.	.	.
!	!	!	!	!	!LO:TX:t=P:problem:mixed beam	!	!	!	!	!	!	!	!	!	!	!	!	!	!
2GG/	8d\L	.	4b\	.	16dd\LL	.	2r	.	.	.	.	.	.	2GG/	2r	.	2r	.	.
.	.	.	.	.	(16g/	.	.	.	.	.	.	.	.	.	.	.	.	.	.
.	8g\J	.	.	.	16f#X/	.	.	.	.	.	.	.	.	.	.	.	.	.	.
.	.	.	.	.	16g/JJ)	.	.	.	.	.	.	.	.	.	.	.	.	.	.
.	4g\	.	8Bn/L	.	(16d/LL	.	.	.	.	.	.	.	.	.	.	.	.	.	.
.	.	.	.	.	16g/	.	.	.	.	.	.	.	.	.	.	.	.	.	.
.	.	.	8c/J	.	16e-/	.	.	.	.	.	.	.	.	.	.	.	.	.	.
.	.	.	.	.	16g/JJ)	.	.	.	.	.	.	.	.	.	.	.	.	.	.
=11	=11	=11	=11	=11	=11	=11	=11	=11	=11	=11	=11	=11	=11	=11	=11	=11	=11	=11	=11
4GG/	4g\	.	4Bn/	.	4d/	.	1r	.	1ryy	1ryy	1ryy	1ryy	1ryy	4GG/	4g/	.	4bn\	1ryy	1ryy
!LO:TX:t=P:problem:mixed beam	!	!	!	!	!	!	!	!	!	!	!	!	!	!	!	!	!	!	!
8G\L	8g\L	.	8B/L	.	8d/L	.	.	.	.	.	.	.	.	8GG/L	8g/L	.	8b\L	.	.
8GG/J	8g\J	.	8B/J	.	8d/J	.	.	.	.	.	.	.	.	8GG/J	8g/J	.	8b\J	.	.
4GG/	4g\	.	4B/	.	4d/	.	.	.	.	.	.	.	.	4GG/	4g/	.	4b\	.	.
!	!	!	!	!	!LO:TX:b:t=Verto Subito.	!	!	!	!	!	!	!	!	!	!	!	!	!	!
4r	4r	.	4r	.	4r	.	.	.	.	.	.	.	.	4r	4r	.	4r	.	.
==	==	==	==	==	==	==	==	==	==	==	==	==	==	==	==	==	==	==	==
*-	*-	*-	*-	*-	*-	*-	*-	*-	*-	*-	*-	*-	*-	*-	*-	*-	*-	*-	*-
!!!system-decoration: [(g1)][(g2)][(g3)][(g4)]s15
!!!RDF**kern: | = vertical stroke
!!!RDF**kern: > = above
!!!RDF**kern: < = below
!!!ENC: Berenika Jozajtis
!!!END: 2020-11-12
!!!EED: Andrzej Borzym
!!!EEV: 2022-04-25
!!!YEC: Copyright 2022 Narodowy Instytut Fryderyka Chopina (https://polishscores.org)
!!!YEM: License CC-BY-4.0 (https://creativecommons.org/licenses/by/4.0)
